setcps (120/120/2)


d1 $ fast 1
   $ every 16 (fast 0.5)
   $ every 8 (fast 5)
   $ striate 6 $ slow 2 $ jux (rev . (slow 2))
   $ stack [
    n "8 " #sound "sofx" #gain 0.5,
    n "22 22 22 22 " #sound "sofx" #gain 0.2,
    n "1 3   " #sound "sofx" #gain 0.2 #n (irand 16) #resonance 2 #lpf (rand - 15000),
    n "{[2 2 . 0 2 . 6 8 . 1 1] [1 2 . 4 4]}" # sound "diabloperc" # gain 0.8 # n (irand 2)
    ]
      # crush 8
      # resonance 1.5 #lpf (rand - 20000)
      # crush 6

      d1 silence

d2
 $ fast 0.7
 $ striate 1
 $ jux(rev . (slow 1))
  $ every 2 (fast 0.5)
  $ every 3 (rev)
  $ every 5 (fast 0.3)
  $ stack[
  n "[8*16 16]" #sound "hhmntrb" #gain 0.4 # n (irand 16),
  n "7" #sound "timkahn" #n (irand 4)
] # gain 0.2 # crush 7

d2 silence

hush



d3 silence

d3 $ fast 2
   $ jux(rev . (slow 2))
    $ striate 2
    $stack[
    n "0 0  1 4 ~ 8 " #sound "jv1080" ,
    n "~ ~  ~ ~ 7 ~ " #sound "jv1080" ,
    n "~ 2" #sound "jv1080"
] # delay 3 # gain 0.5 # room 1

d1 $ fast 0.7 $ every 12 (fast 2) $ stack[
n "4 ~ . ~ . ~ ." #sound "baumbreaks" #n (irand 2)
] # crush 4 # gain 0.6

hush

d1 $ fast 2
$ sometimesBy 0.5 (# speed 2)
$ slowspread (degradeBy) [0, 0.5]
$ every 8 (fast 2)
-- $ jux(rev . (slow 0.6))
$ every 3 (rev)
$ every 4 (fast 0.5)
$ every 16 (fast 1.2)
$ stack[
n "2*4" #sound "ihacki" # n (irand 2) #gain 0.6,
-- n "0*2" #sound "leadbassmntrb" #n (irand  8) # resonance 1 # lpf 8000 # gain 0.3 ,
n "~ 1" #sound "rimva" #pan (rand + 2) # n (irand 8) # gain 0.5 ,
n "~ 9*3" #sound "formanta" #gain 0.5 # n (irand 16)   ,
n "[6 ~ ~] ~ [3 ~] ~ [~ 0]" # sound "andra" # n (irand 2) #crush 8 #resonance 0.5 # lpf 800 #gain 0.5 ,
n "0 0 0 " #sound "rimva" #pan (rand + 6) #gain 0.1 # room 0.35 # gain 0.6,
-- n " 7 7 7 7 " # sound "mizo" # gain 0.2,
n "8 4" #sound "timkahn" # gain 0.8
] #gain 0.7 # crush 8 # cutoff "<1500 15000 >" #resonance "<0.2 0.4>"


d5 $fast 1
$ every 4 (#crush (range 3 8 $ slow 8 $ sine))
$ every 5 (#accelerate "6 -3")
$ stut' 2 (0.125/2) (|*| gain "0.8")
 $ n "{0 ~ 0, 0  ~ [~ 0 ] ~}" # sound "leadbassmntrb" # n (irand 2) # speed 0.4 # gain 0.5 # room 1
 # shape "<0.1 0.2>"
 |*| gain 0.5
 #lpf (sine*1000 + rand -1000 )

d5 silence

hush
