setcps (95/120/2)

d1
-- $ every 16 (# n (irand 8))
-- $ sometimesBy 0.1 (rev)
-- $ jux rev
$ fast 1.4 $ every 8 (fast 1) $ stack[
-- n "0*4" #sound "leadbassmntrb" # n (irand 2) #gain 0.8,
-- n "0*2" #sound "leadbassmntrb" #n (irand  8) # resonance 1 # lpf 8000 # gain 0.3 ,
n "~ 1" #sound "snrva",
n "~ 9*3" #sound "formanta" #gain 0.7,
n "[0 ~ ~] ~ [0 ~] ~ [1 0]" # sound "kickmntrb" # n (irand 8) #crush 8 #gain 1.3,
n "0 0 0 " #sound "rimva" #pan (rand + 6) #gain 0.1 # room 0.35 # gain 0.6,
-- n " 7 7 7 7 " # sound "mizo" #crush 2 # gain 0.2 ,
n "8 4" #sound "timkahn" # gain 0.8
] #gain 0.9 # crush 8

d1 silence

d2 $ fast 0.3 $ every 4 (fast 2) $ stack[
n"6" # sound"jv1080" # n (irand 8),
n"7 " #sound "stabed"
] # delay 5 # gain 0.4 #room 1

d2 silence


hush

d1
$ fast 0.7
$ sound (samples "[formanta, formanta:5*2 formanta:7*4]" (slow 4 $ scan 5))
# lpq 0.2
# gain 0.7

d2 $ n ( off 0.125 (*2) $ slow 2 "c3 eb3 g3 a3")
# s "supersaw"
#lpf (scale 1200 2400 $ slow 4 $ sine1)
#lpq 0.2
#resonance (scale 0.05 0.2 $ slow 2 $ tri1)

hush
