setcps (140/60/4)

d1  $ every 2 (density 2)
    $ every 3 (degradeBy 0.5)
    $ every 8 (# n (irand 16))
    $ sometimesBy 4 (slow 0.5)
    $ jux rev
    $ every 2 (# cutoff (sine - rand + 0.5))
    $ stack[
      loopAt 5 $ splice 8 "0 1 2  3 4  5 6 7" $ sound "pbolhas145:1" #legato 1 # gain 0.6,
      loopAt 5 $ splice 8 "0 1 2  3 4  5 6 7" $ sound "pbolhas145:6?*4" #legato 1 # speed (sine + 0.5) # gain 0.7,
      loopAt 5 $ splice 8 "0 1 2  3 4  5 6 7" $ fast 2 $ degradeBy 0.5 $ (striate 16 $ sound "pbolhas145?*4" #legato 1) # speed "[1 0.5 , [1.25 1.5 2]*3]*2" # delay 0.2 # gain 0.5,
      loopAt 5 $ splice 8 "0 1 2  3 4  5 6 7" $ sound "pbolhas145:9?*8" #legato 1 #speed 12 # gain 0.6,
      loopAt 4 $ splice 4 "0 4 3 . 0 2? 1  " $ sound "pds20140:7" #legato 1 # gain 0.6 # pan (rand)
      ] # cutoff (sine*1000 + 15000) # resonance "0.2 0.5" # crush 6  # room 1 # gain 0.8 #lpf (sine*1100 -1500) #bpf (sine*15000 - rand)

d1 silence


d3
$sometimesBy 0.2 (#irand 4)
$ jux rev
$ stack [
n "0 0 0 " #sound "kickmntrb" # speed 0.4,
n "1*3 1*3 " # sound "hhmntrb"  # speed (sine + rand -1.8) # n (irand 12) # gain 0.4 #hpf 5000 ,
every 2 (slow 4) $ n "{[1 2 2] [5 6 [4 6]] [7 7 8 9] [[2 6 7] 5 [5 4 6 5]}" #sound "formanta:5" # n (irand 12)  # gain 0.8
]

d2 silence

d3 $loopAt 1 $ striate 16 $ n"1 4 " # sound "breakmutante" #legato 1 # gain 0.6


hush
