setcps(140/60/4)

d1
    $ n "[ c5(2,4) , ~ b5(3,4) , a4(2,3), c5'min9]"
        # s "superfm"
        |-| n 1
        # release 0.25


d2
    $ n (arpg "'yu [ c5(2,4) , ~ b5(3,4) , a4(6,3)]")
        # s "supervibe"




d2
    $ often (
        superimpose ((# n "{[0*3]}%1.25")).
        |-| n 6.
        # release 0.1.
        # attack 0.2
    )
    $ n "{[0*3]}%1.75"
    # s "gabba"


hush
