setcps (160/60/4)


d1
  $ jux ((1/3) <~)
  $ stack [
      degradeBy 0
        $ n "0 0 0? . [0 0?]"
          # s "super808"
      ,
      degradeBy 0
        $ every 4 (#release (rangex 0.5 2 $ fast 2 $ sine))
        $ n (scale "yu" "[1 2 3? 4]*3")
          # s "superhat"
          # release (range 0.01 0.035 $ rand)
      ,
      degradeBy 0.25
        $ n "8"
          # s "pidmic170"
          # begin "<0.125>"
          # end "<0.259>"
          # gain 0.85
          # speed 0.75
          # release 0.4
          |*| speed "[-1.0, 1.5]"
  ]
  # up "[7, 0, 12]"
  -- # pan (range 0.4 0.6 $rand)


d2
  $ stack [
    degradeBy 0.1
      $ n "1"
        # s "pidmic170"
        # begin 0.679
        # end 0.76
  ]



  d2
    $ every 4 (jux rev)
    $ every 2 (iter 8)
    -- $ sometimes degrade
    $ sometimesBy 0.09 (jux (iter 14))
    $ stack
    [
      -- s "super808"
      --   #gain "1.2"
      -- ,
      s "gripshats(16,14)"
        #n (irand 3)
        |-| up 2
        # release (range 0.01 0.045 $rand)
      ,
      s "charlieperc(6,14,1)"
        #n (irand 18)
      ,
      s "tribalrand(10,14,8)"
        #n (irand 3)
    ]
    -- #hpf 1000
    |*| gain "1.4"
    -- # shape "0.9"
    # release (range 0.02 0.95 $ sine)


  hush
